X: 20361
T: John Cheap The Chapman
R: reel
M: 4/4
K: Dminor
|:D2AD FDFd|D2AF ECCE|D2AD FGAF|EcGc ECCE:|
|:DddA FGAF|DddF ECCE|1 DddA FGAF|EGcG ECCE:|2 Ddfd e^cd=B|cGAF ECCE||

